!!!COM: Palestrina, Giovanni Perluigi da
!!!OPR: In semidupl. maj. (II)
!!!OTL: Agnus
**kern	**kern	**kern	**kern	**kern
*Ibass	*Itenor	*Itenor	*Icalto	*Icant
!Bassus	!Tenor 2	!Tenor 1	!Altus	!Cantus
*clefF4	*clefGv2	*clefGv2	*clefG2	*clefG2
*k[b-]	*k[b-]	*k[b-]	*k[b-]	*k[b-]
*F:ion	*F:ion	*F:ion	*F:ion	*F:ion
*M4/2	*M4/2	*M4/2	*M4/2	*M4/2
=1	=1	=1	=1	=1
0r	0r	1r	0c	0r
.	.	[1F	.	.
=2	=2	=2	=2	=2
0r	0r	1F]	1d	0r
.	.	1G	1e	.
=3	=3	=3	=3	=3
0r	0r	1A	1c	0r
.	.	1F	2.f	.
.	.	.	4e	.
=4	=4	=4	=4	=4
0r	1r	1.B-	4d	0f
.	.	.	4c	.
.	.	.	4B-	.
.	.	.	4c	.
.	[1B-	.	4d	.
.	.	.	4e	.
.	.	2A	[2f	.
=5	=5	=5	=5	=5
0r	1B-]	1G	2f]	1g
.	.	.	2e	.
.	1c	1F	1f	1a
=6	=6	=6	=6	=6
0r	1d	2.B-	2r	1f
.	.	.	1B-	.
.	.	4A	.	.
.	1B-	2.G	.	[1b-
.	.	.	2G	.
.	.	4F	.	.
=7	=7	=7	=7	=7
0r	1.e-	0E-	2B-	2b-]
.	.	.	2.c	2a
.	.	.	.	1g
.	.	.	4B-	.
.	2d	.	[2B-	.
=8	=8	=8	=8	=8
1r	1c	0F	2B-]	2f
.	.	.	2A	2cc
[1BB-	2B-	.	2.B-	2dd
.	2d	.	.	4dd
.	.	.	4c	4cc
=9	=9	=9	=9	=9
1BB-]	4d	2r	1d	4b-
.	4c	.	.	4a
.	4B-	2d	.	4g
.	4A	.	.	4f
1C	4G	2.c	2r	4e
.	4F	.	.	4d
.	2E	.	2g	2e
.	.	4B-	.	.
=10	=10	=10	=10	=10
1D	2F	4A	2f	2.d
.	.	4G	.	.
.	1D	1F	4f	.
.	.	.	4e	4e
1BB-	.	.	4d	1f
.	.	.	4c	.
.	2d	[2B-	4B-	.
.	.	.	4A	.
=11	=11	=11	=11	=11
1.E-	2.e-	4B-]	4G	1g
.	.	4A	4A	.
.	.	1G	2B-	.
.	4d	.	.	.
.	2c	.	2c	1r
2D	[2B-	2F	2d	.
=12	=12	=12	=12	=12
1C	2B-]	1c	1e-	0r
.	2A	.	.	.
1BB-	[1B-	2F	1d	.
.	.	2B-	.	.
=13	=13	=13	=13	=13
1BB-	1B-]	1d	1r	1f
1F	2r	1c	2r	1a
.	2A	.	2c	.
=14	=14	=14	=14	=14
1C	1c	0r	1e	1.g
1r	2B-	.	2d	.
.	2A	.	2c	2f
=15	=15	=15	=15	=15
0r	2B-	0r	2d	2g
.	1d	.	1f	2b-
.	.	.	.	2a
.	4c	.	4e	[2cc
.	4B-	.	4d	.
=16	=16	=16	=16	=16
0r	2A	2r	2e	4cc]
.	.	.	.	4b-
.	2F	2c	1f	1a
.	1B-	1d	.	.
.	.	.	2d	2g
=17	=17	=17	=17	=17
0FF	1A	2c	2.f	0a
.	.	2F	.	.
.	.	.	8e	.
.	.	.	8d	.
.	2r	1A	[1c	.
.	2F	.	.	.
=18	=18	=18	=18	=18
1C	1E	1.G	1c]	0r
2BB-	2D	.	1r	.
2AA	2C	2F	.	.
=19	=19	=19	=19	=19
2BB-	2D	2G	0r	0r
1D	1F	2B-	.	.
.	.	2A	.	.
4C	4E	[2c	.	.
4BB-	4D	.	.	.
=20	=20	=20	=20	=20
1AA	2E	4c]	2r	0r
.	.	4B-	.	.
.	1F	1A	2c	.
2BB-	.	.	2d	.
2C	2E	2G	[2c	.
=21	=21	=21	=21	=21
0FF	4F	1A	4c]	2r
.	4G	.	4B-	.
.	4A	.	4A	2f
.	4B-	.	4G	.
.	1c	2r	2F	1a
.	.	2F	[2f	.
=22	=22	=22	=22	=22
2r	1C	1c	2f]	1.g
2C	.	.	2e	.
2G	2r	2B-	2d	.
2A	2c	2A	2c	2f
=23	=23	=23	=23	=23
1G	2B-	2B-	2.d	2g
.	1d	2G	.	2b-
.	.	.	4e	.
1F	.	2A	[1f	2a
.	4c	2F	.	[2cc
.	4B-	.	.	.
=24	=24	=24	=24	=24
1F	1A	2r	1f]	4cc]
.	.	.	.	4b-
.	.	2c	.	1a
1G	1B-	2B-	2.d	.
.	.	[2d	.	2g
.	.	.	4e	.
=25	=25	=25	=25	=25
2.D	0A	2d]	1f	1a
.	.	4c	.	.
4E	.	4B-	.	.
1F	.	4A	2r	2r
.	.	4G	.	.
.	.	2F	2f	2a
=26	=26	=26	=26	=26
0r	1r	2c	2e	2g
.	.	2F	1f	1a
.	2r	1C	.	.
.	2c	.	2e	[2g
=27	=27	=27	=27	=27
0r	2B	0r	2d	4g]
.	.	.	.	4f
.	2.c	.	4g	4e
.	.	.	4f	4d
.	.	.	4e	4c
.	4B-	.	4d	4d
.	4A	.	[2c	2e
.	4G	.	.	.
=28	=28	=28	=28	=28
0r	2F	1r	2c]	1d
.	2G	.	2B	.
.	1A	2r	1c	4c
.	.	.	.	4d
.	.	2c	.	4e
.	.	.	.	4f
=29	=29	=29	=29	=29
2r	2G	2B	0r	2g
2F	2F	2.c	.	4a
.	.	.	.	4b
2E	2C	.	.	2.cc
.	.	4B-	.	.
[2F	2c	4A	.	.
.	.	4G	.	4b-
=30	=30	=30	=30	=30
4F]	2c	1F	0r	4a
4E-	.	.	.	4g
4D	1d	.	.	1f
4C	.	.	.	.
2BB-	.	2G	.	.
2C	4c	[2A	.	2e
.	4B-	.	.	.
=31	=31	=31	=31	=31
1D	2A	2A]	2r	1f
.	2B-	4G	2f	.
.	.	4F	.	.
2C	1c	2G	2e	1r
2AA	.	2A	[2f	.
=32	=32	=32	=32	=32
1BB-	1.d	2F	4f]	0r
.	.	.	4e-	.
.	.	1B-	4d	.
.	.	.	4c	.
1r	.	.	2B-	.
.	2c	2A	2c	.
=33	=33	=33	=33	=33
0r	2B-	2G	4d	2r
.	.	.	4e	.
.	2A	2F	1f	2cc
.	2d	2G	.	2b
.	4c	2C	2e	[2cc
.	4B-	.	.	.
=34	=34	=34	=34	=34
0r	4A	1F	2.f	4cc]
.	4G	.	.	4b-
.	2A	.	.	4a
.	.	.	4e	4g
.	1B-	2r	4d	2f
.	.	.	4c	.
.	.	[2d	2d	2g
=35	=35	=35	=35	=35
1r	1A	2d]	1e	1a
.	.	2c#	.	.
2r	1r	2d	1f	2a
2F	.	[2c	.	2a
=36	=36	=36	=36	=36
2E	0r	4c]	2r	2g
.	.	4B-	.	.
2.F	.	4A	2d	2.a
.	.	4G	.	.
.	.	1F	2c	.
4E-	.	.	.	4g
4D	.	.	[2d	[2f
4C	.	.	.	.
=37	=37	=37	=37	=37
2BB-	2r	2G	2d]	2f]
2C	1c	1A	2c	2e
1D	.	.	2r	1f
.	2B	4G	[2f	.
.	.	4F	.	.
=38	=38	=38	=38	=38
1C	2c	2G	2f]	2.cc
.	2G	2.c	2e	.
.	.	.	.	4b-
1FF	2r	.	2.f	4a
.	.	4B-	.	4g
.	2c	4A	.	[2f
.	.	8G	4e	.
.	.	8F	.	.
=39	=39	=39	=39	=39
2r	2B	1G	2d	2f]
2C	2.c	.	4c	2e
.	.	.	4B-	.
2FF	.	1F	2.A	2.f
.	4B-	.	.	.
[2F	4A	.	.	.
.	4G	.	4B-	4g
=40	=40	=40	=40	=40
2F]	2F	2r	[0c	2a
2E	2G	2.c	.	1g
1F	1A	.	.	.
.	.	4c	.	.
.	.	2F	.	[2f
=41	=41	=41	=41	=41
0C	0G	2G	0c]	2f]
.	.	2.c	.	4e
.	.	.	.	4d
.	.	.	.	1e
.	.	4B-	.	.
.	.	2G	.	.
=42	=42	=42	=42	=42
[0FF	[0F	[0A	[0c	[0f
=43	=43	=43	=43	=43
0FF]	0F]	0A]	0c]	0f]
==	==	==	==	==
*-	*-	*-	*-	*-
!!!CDT: 1525/^1526/-1594/2/2
!!!OCY: Italia
!!!AGN: Mass (Paraphrase)
!!!AST: renaissance, vocal
!!!ASW: Gregorian Mass
!!!PWK: Masses, Book Mantuan II
!!!RNB: Cadence finals: C
!!!YOR: Le Opere Complete, v. 19, p. 87
!!!YOO: Rome, Italy: Fratelli Scalera
!!!END: 1992//
!!!EED: John Miller
!!!YEC: Copyright 2000, John Miller
!!!YEN: United States of America
!!!YEM: Rights to all derivative electronic formats reserved.
!!!YEM: Refer to licensing agreement for further details.
!!!YEM: This file must be accompanied by the licensing agreement.
!!!YEM: A copy of the licensing agreement may be found at http://www.music-cog.ohio-state.edu/HumdrumDatabases/Palestrina/license.txt
!!!EMD: converted to Humdrum by Bret Aarden
